!!!OTL: 648. Was das Menschenherz braucht.
!!!ARE: Europa, Mitteleuropa, Deutschland, Lahn - Tal
!!!SCT: E0648
!!!TXL: @@DE
!!!YEM: Copyright 1995, estate of Helmut Schaffrath.
**kern	**text
*ICvox	*
*M3/4	*
*k[f#c#g#]	*
*A:	*
!LO:TX:a:t=Ruhig.	!
!LO:TX:a:t=Aus dem Lahnthal. 1880.	!
{4e	Die
=1	=1
4a	Er-
4cc#	-de
4ee	braucht
=2	=2
8ff#L	Re-
8eeJ	.
4ee}	-gen,
{8cc#L	die
8eeJ	.
=3	=3
4ee	Son-
4dd	-ne
4ee	braucht
=4	=4
2cc#}	Licht,
{4e	Der
=5	=5
4a	Him-
4cc#	-mel
4ee	braucht
=6	=6
8ff#L	Ster-
8eeJ	.
4ee}	-ne,
{8cc#L	wenn
8eeJ	die
=7	=7
4ee	Nacht
4dd	her-
4ee	-ein-
=8	=8
2cc#}	-bricht;
{4ee	ein
=9	=9
4dd#	Aſt
4cc#	braucht
4dd#	der
=10	=10
4ee	Vo-
4b}	-gel,
{8.cc#	um
16b	ſein
=11	=11
4b	Neſt-
4a	-chen
8b	drauf
8b	ʒu
=12	=12
2g#}	bau'n
{4e	der
=13	=13
4a	Menſch
4cc#	braucht
4ee	ein
=14	=14
(4ff#	Herʒ,
4ee)}	.
{8cc#	dem
8ee	er
=15	=15
4ee	ſeins
4dd	kann
4ee	ver-
=16	=16
2cc#}	-traun.
==	==
!!!AGN: Liebes - Lied
!!!ONB: ESAC (Essen Associative Code) Database: ERK2
!!!AMT: simple triple
!!!AIN: vox
!!!EED: Helmut Schaffrath
!!!EEV: 1.0
!!!GTL: Liebeslieder [Neuere (aus dem 18. bis 19. Jahrh.) - Liebeslust]
!!!URL-scan: https://rosdok.uni-rostock.de/mcrviewer/recordIdentifier/rosdok_ppn745177662/iview2/phys_0459.iview2?x=48.368023684967966&y=1513.5753308653366&scale=0.7029437510502773&rotation=0&layout=singlePageLayout
!!!ENC: Anna Maria Matuszewska
!!!EEV: 2024/12/12
*-	*-
